symbols-de/shields/motorway_5x2_z18.svg

<?xml version="1.0" encoding="UTF-8" standalone="no"?>
<svg
   xmlns:dc="http://purl.org/dc/elements/1.1/"
   xmlns:cc="http://creativecommons.org/ns#"
   xmlns:rdf="http://www.w3.org/1999/02/22-rdf-syntax-ns#"
   xmlns:svg="http://www.w3.org/2000/svg"
   xmlns="http://www.w3.org/2000/svg"
   xmlns:sodipodi="http://sodipodi.sourceforge.net/DTD/sodipodi-0.dtd"
   xmlns:inkscape="http://www.inkscape.org/namespaces/inkscape"
   width="100%"
   height="100%"
   viewBox="0 0 45.0 28.0"
   id="svg2"
   version="1.1"
   inkscape:version="0.91 r13725"
   sodipodi:docname="autobahn_5x2_z18.svg">
  <metadata
     id="metadata9">
    <rdf:RDF>
      <cc:Work
         rdf:about="">
        <dc:format>image/svg+xml</dc:format>
        <dc:type
           rdf:resource="http://purl.org/dc/dcmitype/StillImage" />
        <dc:title></dc:title>
      </cc:Work>
    </rdf:RDF>
  </metadata>
  <defs
     id="defs7" />
  <sodipodi:namedview
     pagecolor="#ffffff"
     bordercolor="#666666"
     borderopacity="1"
     objecttolerance="10"
     gridtolerance="10"
     guidetolerance="10"
     inkscape:pageopacity="0"
     inkscape:pageshadow="2"
     inkscape:window-width="1186"
     inkscape:window-height="799"
     id="namedview5"
     showgrid="false"
     inkscape:zoom="7.8444444"
     inkscape:cx="22.372521"
     inkscape:cy="14"
     inkscape:window-x="360"
     inkscape:window-y="138"
     inkscape:window-maximized="0"
     inkscape:current-layer="svg2" />
  <path
     style="fill:#365eaf;fill-opacity:1;stroke:#0528a2;stroke-width:1;stroke-miterlimit:4;stroke-dasharray:none;stroke-opacity:1"
     d="m 22.5,0.5000012 c -0.31541,0 -0.472656,0.003888 -0.472656,0.0137592 L 1.2106365,2.5910356 C 0.73751739,2.690644 0.50000001,2.8412112 0.50000001,3.0404247 c 0,7.3063843 0,14.6127703 0,21.9191553 0,0.199212 0.23751631,0.349785 0.71063649,0.449388 l 20.8167075,2.077274 c 0,0.0099 0.157249,0.01376 0.472656,0.01376 0.315413,0 0.472657,-0.0039 0.472657,-0.01376 l 20.816706,-2.077275 c 0.47312,-0.09961 0.710638,-0.250177 0.710638,-0.449388 0,-7.306386 0,-14.612771 0,-21.9191554 0,-0.1992135 -0.237518,-0.349785 -0.710638,-0.449389 L 22.972657,0.51375932 c 0,-0.009936 -0.157249,-0.0137592 -0.472657,-0.0137592 z"
     id="path6"
     inkscape:connector-curvature="0"
     sodipodi:nodetypes="sccccccsccccccs" />
</svg>

<?xml version="1.0" encoding="UTF-8"?>
<svg xmlns="http://www.w3.org/2000/svg" xmlns:xlink="http://www.w3.org/1999/xlink" width="44pt" height="36pt" viewBox="0 0 44 36" version="1.1">
<g id="surface1">
<path style="fill-rule:nonzero;fill:rgb(21.176471%,36.862745%,68.627451%);fill-opacity:1;stroke-width:1;stroke-linecap:butt;stroke-linejoin:miter;stroke:rgb(1.960784%,15.686275%,63.529412%);stroke-opacity:1;stroke-miterlimit:4;" d="M 22.5 0.501302 C 22.184393 0.501302 22.028587 0.50434 22.028587 0.513455 L 1.210494 2.59158 C 0.73908 2.69184 0.499379 2.840712 0.499379 3.041233 C 0.499379 10.34809 0.499379 17.65191 0.499379 24.958767 C 0.499379 25.159288 0.73908 25.30816 1.210494 25.40842 L 22.028587 27.486545 C 22.028587 27.49566 22.184393 27.498698 22.5 27.498698 C 22.815607 27.498698 22.971413 27.49566 22.971413 27.486545 L 43.789506 25.40842 C 44.26092 25.30816 44.500621 25.159288 44.500621 24.958767 C 44.500621 17.65191 44.500621 10.34809 44.500621 3.041233 C 44.500621 2.840712 44.26092 2.69184 43.789506 2.59158 L 22.971413 0.513455 C 22.971413 0.50434 22.815607 0.501302 22.5 0.501302 Z M 22.5 0.501302 " transform="matrix(0.977778,0,0,1.285714,0,0)"/>
</g>
</svg>
